KdGameTangram/web/ios/img/i/flip.svg

<?xml version="1.0" encoding="utf-8"?>
<!-- Generated by IcoMoon.io -->
<!DOCTYPE svg PUBLIC "-//W3C//DTD SVG 1.1//EN" "http://www.w3.org/Graphics/SVG/1.1/DTD/svg11.dtd">
<svg version="1.1" xmlns="http://www.w3.org/2000/svg" xmlns:xlink="http://www.w3.org/1999/xlink" width="32" height="32" viewBox="0 0 32 32">
	<path d="M24.149 10.71h1.131v3.221l6.72-5.76-6.72-5.76v3.819h-1.131c-5.909 0-9.242 4.379-12.182 8.243-2.645 3.475-4.928 6.477-8.618 6.477h-3.349v4.482h3.349c5.91 0 9.242-4.381 12.184-8.245 2.643-3.477 4.926-6.477 8.616-6.477zM8.658 13.533c0.251-0.326 0.506-0.659 0.763-0.997 0.626-0.822 1.286-1.69 2.002-2.554-2.114-1.974-4.664-3.432-8.074-3.432h-3.349v4.48h3.349c2.123 0 3.781 0.997 5.309 2.502zM25.28 21.269h-1.131c-2.251 0-3.978-1.118-5.584-2.781-0.162 0.21-0.322 0.422-0.485 0.637-0.706 0.925-1.466 1.922-2.302 2.906 2.171 2.118 4.802 3.718 8.371 3.718h1.131v3.84l6.72-5.76-6.72-5.763v3.203z" fill="#ffffff" />
</svg>

<?xml version="1.0" encoding="utf-8"?>
<!-- Generator: Adobe Illustrator 15.0.0, SVG Export Plug-In . SVG Version: 6.00 Build 0)  -->
<!DOCTYPE svg PUBLIC "-//W3C//DTD SVG 1.1//EN" "http://www.w3.org/Graphics/SVG/1.1/DTD/svg11.dtd">
<svg version="1.1" id="Layer_1" xmlns="http://www.w3.org/2000/svg" xmlns:xlink="http://www.w3.org/1999/xlink" x="0px" y="0px"
	 width="32px" height="27.178px" viewBox="0 2.411 32 27.178" enable-background="new 0 2.411 32 27.178" xml:space="preserve">
<path fill="#FFFFFF" stroke="#000000" stroke-linecap="round" stroke-linejoin="round" stroke-miterlimit="10" d="M24.148,10.71
	h1.131v3.221L32,8.171l-6.721-5.76V6.23h-1.131c-5.908,0-9.241,4.379-12.182,8.243c-2.645,3.475-4.928,6.477-8.618,6.477H0v4.481
	h3.349c5.91,0,9.242-4.381,12.184-8.244C18.176,13.71,20.459,10.71,24.148,10.71z M8.658,13.533
	c0.251-0.326,0.506-0.659,0.763-0.997c0.626-0.822,1.286-1.69,2.002-2.554C9.309,8.008,6.759,6.55,3.349,6.55H0v4.48h3.349
	C5.472,11.03,7.13,12.027,8.658,13.533L8.658,13.533z M25.279,21.27h-1.131c-2.25,0-3.978-1.119-5.584-2.781
	c-0.162,0.21-0.321,0.422-0.484,0.637c-0.706,0.925-1.467,1.922-2.302,2.906c2.171,2.117,4.802,3.718,8.371,3.718h1.131v3.84
	L32,23.829l-6.721-5.763V21.27z"/>
</svg>
